Newaita/actions/scalable/window-new.svg

<?xml version="1.0" encoding="UTF-8"?>
<svg xmlns="http://www.w3.org/2000/svg" xmlns:xlink="http://www.w3.org/1999/xlink" width="512pt" height="512pt" viewBox="0 0 512 512" version="1.1">
<defs>
<filter id="alpha" filterUnits="objectBoundingBox" x="0%" y="0%" width="100%" height="100%">
  <feColorMatrix type="matrix" in="SourceGraphic" values="0 0 0 0 1 0 0 0 0 1 0 0 0 0 1 0 0 0 1 0"/>
</filter>
<mask id="mask0">
  <g filter="url(#alpha)">
<rect x="0" y="0" width="512" height="512" style="fill:rgb(0%,0%,0%);fill-opacity:0.988235;stroke:none;"/>
  </g>
</mask>
<clipPath id="clip1">
  <rect x="0" y="0" width="512" height="512"/>
</clipPath>
<g id="surface5" clip-path="url(#clip1)">
<path style=" stroke:none;fill-rule:nonzero;fill:rgb(25.882354%,25.882354%,25.882354%);fill-opacity:1;" d="M 21.167969 131.011719 L 21.167969 448.542969 C 21.167969 471.996094 40.050781 490.878906 63.507812 490.878906 L 444.542969 490.878906 C 467.996094 490.878906 486.878906 471.996094 486.878906 448.542969 L 486.878906 131.011719 Z M 52.921875 162.765625 L 455.125 162.765625 L 455.125 437.957031 C 455.125 449.6875 445.683594 459.128906 433.957031 459.128906 L 74.089844 459.128906 C 62.363281 459.128906 52.921875 449.6875 52.921875 437.957031 Z M 52.921875 162.765625 "/>
</g>
<mask id="mask1">
  <g filter="url(#alpha)">
<rect x="0" y="0" width="512" height="512" style="fill:rgb(0%,0%,0%);fill-opacity:0.988235;stroke:none;"/>
  </g>
</mask>
<clipPath id="clip2">
  <rect x="0" y="0" width="512" height="512"/>
</clipPath>
<g id="surface8" clip-path="url(#clip2)">
<path style=" stroke:none;fill-rule:nonzero;fill:rgb(25.882354%,25.882354%,25.882354%);fill-opacity:1;" d="M 63.507812 25.167969 C 40.050781 25.167969 21.167969 44.050781 21.167969 67.507812 L 21.167969 131.011719 L 52.921875 131.011719 L 52.921875 78.089844 C 52.921875 66.363281 62.363281 56.921875 74.089844 56.921875 L 433.957031 56.921875 C 445.683594 56.921875 455.125 66.363281 455.125 78.089844 L 455.125 131.011719 L 486.878906 131.011719 L 486.878906 67.507812 C 486.878906 44.050781 467.996094 25.167969 444.542969 25.167969 Z M 63.507812 25.167969 "/>
</g>
</defs>
<g id="surface1">
<use xlink:href="#surface5" mask="url(#mask0)"/>
<use xlink:href="#surface8" mask="url(#mask1)"/>
<path style=" stroke:none;fill-rule:nonzero;fill:rgb(14.901961%,65.098041%,60.392159%);fill-opacity:1;" d="M 269.902344 242.148438 L 269.902344 379.746094 C 269.902344 388.511719 263.40625 395.621094 255.390625 395.621094 L 252.65625 395.621094 C 244.644531 395.621094 238.148438 388.511719 238.148438 379.746094 L 238.148438 242.148438 C 238.148438 233.378906 244.644531 226.273438 252.65625 226.273438 L 255.390625 226.273438 C 263.40625 226.273438 269.902344 233.378906 269.902344 242.148438 Z M 269.902344 242.148438 "/>
<path style=" stroke:none;fill-rule:nonzero;fill:rgb(14.901961%,65.098041%,60.392159%);fill-opacity:1;" d="M 185.226562 295.070312 L 322.824219 295.070312 C 331.589844 295.070312 338.699219 301.566406 338.699219 309.578125 L 338.699219 312.3125 C 338.699219 320.328125 331.589844 326.824219 322.824219 326.824219 L 185.226562 326.824219 C 176.457031 326.824219 169.347656 320.328125 169.347656 312.3125 L 169.347656 309.578125 C 169.347656 301.566406 176.457031 295.070312 185.226562 295.070312 Z M 185.226562 295.070312 "/>
</g>
</svg>

<svg xmlns="http://www.w3.org/2000/svg" xmlns:xlink="http://www.w3.org/1999/xlink" width="512pt" height="512pt" viewBox="0 0 512 512"><defs><filter id="a" filterUnits="objectBoundingBox" x="0%" y="0%" width="100%" height="100%"><feColorMatrix in="SourceGraphic" values="0 0 0 0 1 0 0 0 0 1 0 0 0 0 1 0 0 0 1 0"/></filter><mask id="e"><path fill-opacity=".988" d="M0 0h512v512H0z" filter="url(#a)"/></mask><clipPath id="b"><path d="M0 0h512v512H0z"/></clipPath><g id="d" clip-path="url(#b)"><path d="M21.168 131.012v317.531c0 23.453 18.883 42.336 42.34 42.336h381.035c23.453 0 42.336-18.883 42.336-42.336V131.012zm31.754 31.754h402.203v275.191a21.123 21.123 0 0 1-21.168 21.172H74.09a21.123 21.123 0 0 1-21.168-21.172zm0 0" fill="#424242"/></g><mask id="g"><path fill-opacity=".988" d="M0 0h512v512H0z" filter="url(#a)"/></mask><clipPath id="c"><path d="M0 0h512v512H0z"/></clipPath><g id="f" clip-path="url(#c)"><path d="M63.508 25.168c-23.457 0-42.34 18.883-42.34 42.34v63.504h31.754V78.09A21.122 21.122 0 0 1 74.09 56.922h359.867a21.122 21.122 0 0 1 21.168 21.168v52.922h31.754V67.508c0-23.457-18.883-42.34-42.336-42.34zm0 0" fill="#424242"/></g></defs><use xlink:href="#d" mask="url(#e)"/><use xlink:href="#f" mask="url(#g)"/><path d="M269.902 242.148v137.598c0 8.766-6.496 15.875-14.511 15.875h-2.735c-8.011 0-14.508-7.11-14.508-15.875V242.148c0-8.77 6.497-15.875 14.508-15.875h2.735c8.015 0 14.511 7.106 14.511 15.875zm0 0" fill="#26a69a"/><path d="M185.227 295.07h137.597c8.766 0 15.875 6.496 15.875 14.508v2.735c0 8.015-7.11 14.511-15.875 14.511H185.227c-8.77 0-15.88-6.496-15.88-14.512v-2.734c0-8.012 7.11-14.508 15.88-14.508zm0 0" fill="#26a69a"/></svg>
